X: 1476
T: Nice Bir Bülbül-i Nalân Edeyim
C: İlya Efendi
O: Turkey
F: http://compmusic.upf.edu/node/140
N: sazkar--agirsemai--aksaksemai--nice_bir--ilya_efendi
N: makam= sazkar
N: form= agirsemai
N: usul= aksaksemai = 10/8
M: 10/8
L: 1/16
K: C _1/4B ^f  
Q: 1/4=126
%%MIDI tuningsystem comma53
B6B3^AzG2AB4z2  | c6c3Bd2 cBA4B2  | A4 F2G4A4B2 {c}B2c2  | 
w:  Ah  *  *  ni ce  bir   |  bül *  *  bül_ i  *  nâ  |  lân   | 
d2e2 f2g2 =fed2 cBc4B2  | c2B2 c2d3cdc {e}dcB4z2  | 
w:  *  *  *  *  *  *  gi bi  *  fer  |  yâd  *  *  e *  de *  *  *  *  yim    | 
B6B3^AzG2AB4z2  | c6c3Bd2 cBA4B2  | A4 F2G4A4B2 {c}B2c2  | 
w:  Ah  *  *  ni ce  bir   |  bül *  *  bül_ i  *  nâ  |  lân   | 
d2e2 f2g2 =fed2 cBc4B2  | c2B2 c2d3cdc {e}dcB4z2  | 
w:  *  *  *  *  *  *  gi bi  *  fer  |  yâd  *  *  e *  de *  *  *  *  yim    | 
g4 =fee3dde edd4cB  | A3B c2d3cdc2BB4z2  | 
w:  Ca *  *  nım  *  yel  *  le  *  le  lel   |  lel  le  lel  lel  *  lel  *  *  li   | 
d4 cBA3GGc Bcd4z2  | A3B c2d3ccB2AA4z2  | 
w:  öm *  *  rüm  *  *  te  re  *  lel   |  lel  *  lel  lel  *  lel   | 
A4 GFE4D4G2 {A}G2A2  | B2c2 d2e2 d2c2 B2A2 G2e2  | \
w:  ya  lâ  *  yel  lel  li   |  hey   | 
d6g3=ffe {f}eddc BAG2  | 
w:  Yâr  yâr  *  gi *  *  bi  *  fer  | 
G6A2 GABA BAG4z2  | d6d3^czd cde4z2  | \
w:  yad  e *  *  de *  *  *  yim    |  Ah  *  *  sen  *  ba na   | 
d2^cd efg3fgf fee4z2  | 
w:  et *  *  *  *  *  *  me *  ye *  cek   | 
g2fe d^c=B4cd c2de d2^e2  | f6f2 ^e2f2 a2g2 =f2=e2  | 
w:  rah  |  *  *  *  mü te rah  | 
d4 ^c2dc dcc=B B^A_1/4B4z2  | g4 =fee3dde edd4cB  | 
w:  hüm *  ler  *  *  *  e *  *  *  dip   |  Ca *  *  nım  *  yel  *  le  *  le  lel   | 
A3B c2d3cdc2BB4z2  | d4 cBA3GGc Bcd4z2  | 
w:  lel  le  lel  lel  *  lel  *  *  li   |  öm *  *  rüm  *  *  te  re  *  lel   | 
A3B c2d3ccB2AA4z2  | A4 GFE4D4G2 {A}G2A2  | \
w:  lel  *  lel  lel  *  lel   |  ya  lâ  *  yel  lel  li   | 
B2c2 d2e2 d2c2 B2A2 G2e2  | 
w:  hey   | 
d6g3=ffe {f}eddc BAG2  | G6A2 GABA BAG4z2  | 
w:  Yâr  yâr  *  gi *  *  bi  *  fer  |  yad  e *  *  de *  *  *  yim    | 
|


